images/icons/cf_icon_MP_safehome_green.svg

<?xml version="1.0" encoding="UTF-8" standalone="no"?>
<svg
   xmlns:dc="http://purl.org/dc/elements/1.1/"
   xmlns:cc="http://creativecommons.org/ns#"
   xmlns:rdf="http://www.w3.org/1999/02/22-rdf-syntax-ns#"
   xmlns:svg="http://www.w3.org/2000/svg"
   xmlns="http://www.w3.org/2000/svg"
   xmlns:sodipodi="http://sodipodi.sourceforge.net/DTD/sodipodi-0.dtd"
   xmlns:inkscape="http://www.inkscape.org/namespaces/inkscape"
   version="1.1"
   id="Capa_1"
   x="0px"
   y="0px"
   viewBox="0 0 141.7 141.7"
   enable-background="new 0 0 141.7 141.7"
   xml:space="preserve"
   sodipodi:docname="cf_icon_MP_safehome_green.svg"
   inkscape:version="1.0.1 (3bc2e813f5, 2020-09-07)"
   inkscape:export-filename="C:\Users\arnau\Documents\GitHub\inav-configurator\images\icons\cf_icon_MP_save2file.png"
   inkscape:export-xdpi="74"
   inkscape:export-ydpi="74"><metadata
   id="metadata19"><rdf:RDF><cc:Work
       rdf:about=""><dc:format>image/svg+xml</dc:format><dc:type
         rdf:resource="http://purl.org/dc/dcmitype/StillImage" /><dc:title></dc:title></cc:Work></rdf:RDF></metadata><defs
   id="defs17"><marker
     style="overflow:visible"
     id="marker1338"
     refX="0.0"
     refY="0.0"
     orient="auto"
     inkscape:stockid="Arrow1Lstart"
     inkscape:isstock="true"><path
       transform="scale(0.8) translate(12.5,0)"
       style="fill-rule:evenodd;stroke:#000000;stroke-width:1.0pt"
       d="M 0.0,0.0 L 5.0,-5.0 L -12.5,0.0 L 5.0,5.0 L 0.0,0.0 z "
       id="path1336" /></marker><marker
     style="overflow:visible"
     id="marker1292"
     refX="0.0"
     refY="0.0"
     orient="auto"
     inkscape:stockid="Arrow1Lstart"
     inkscape:isstock="true"><path
       transform="scale(0.8) translate(12.5,0)"
       style="fill-rule:evenodd;stroke:#000000;stroke-width:1.0pt"
       d="M 0.0,0.0 L 5.0,-5.0 L -12.5,0.0 L 5.0,5.0 L 0.0,0.0 z "
       id="path1290" /></marker><marker
     style="overflow:visible"
     id="marker1252"
     refX="0.0"
     refY="0.0"
     orient="auto"
     inkscape:stockid="Arrow1Lstart"
     inkscape:isstock="true"><path
       transform="scale(0.8) translate(12.5,0)"
       style="fill-rule:evenodd;stroke:#000000;stroke-width:1.0pt"
       d="M 0.0,0.0 L 5.0,-5.0 L -12.5,0.0 L 5.0,5.0 L 0.0,0.0 z "
       id="path1250" /></marker><marker
     style="overflow:visible"
     id="marker1218"
     refX="0.0"
     refY="0.0"
     orient="auto"
     inkscape:stockid="Arrow1Lstart"
     inkscape:isstock="true"><path
       transform="scale(0.8) translate(12.5,0)"
       style="fill-rule:evenodd;stroke:#000000;stroke-width:1.0pt"
       d="M 0.0,0.0 L 5.0,-5.0 L -12.5,0.0 L 5.0,5.0 L 0.0,0.0 z "
       id="path1216" /></marker><marker
     style="overflow:visible"
     id="marker1172"
     refX="0.0"
     refY="0.0"
     orient="auto"
     inkscape:stockid="Arrow1Lstart"
     inkscape:isstock="true"><path
       transform="scale(0.8) translate(12.5,0)"
       style="fill-rule:evenodd;stroke:#000000;stroke-width:1pt;stroke-opacity:1;fill:#000000;fill-opacity:1"
       d="M 0.0,0.0 L 5.0,-5.0 L -12.5,0.0 L 5.0,5.0 L 0.0,0.0 z "
       id="path1170" /></marker><marker
     style="overflow:visible"
     id="marker1150"
     refX="0.0"
     refY="0.0"
     orient="auto"
     inkscape:stockid="Arrow1Lstart"
     inkscape:isstock="true"><path
       transform="scale(0.8) translate(12.5,0)"
       style="fill-rule:evenodd;stroke:#000000;stroke-width:1pt;stroke-opacity:1;fill:#000000;fill-opacity:1"
       d="M 0.0,0.0 L 5.0,-5.0 L -12.5,0.0 L 5.0,5.0 L 0.0,0.0 z "
       id="path1148" /></marker><marker
     style="overflow:visible"
     id="marker1128"
     refX="0.0"
     refY="0.0"
     orient="auto"
     inkscape:stockid="Arrow1Lstart"
     inkscape:isstock="true"><path
       transform="scale(0.8) translate(12.5,0)"
       style="fill-rule:evenodd;stroke:#000000;stroke-width:1pt;stroke-opacity:1;fill:#000000;fill-opacity:1"
       d="M 0.0,0.0 L 5.0,-5.0 L -12.5,0.0 L 5.0,5.0 L 0.0,0.0 z "
       id="path1126" /></marker><marker
     style="overflow:visible"
     id="Arrow1Lstart"
     refX="0.0"
     refY="0.0"
     orient="auto"
     inkscape:stockid="Arrow1Lstart"
     inkscape:isstock="true"><path
       transform="scale(0.8) translate(12.5,0)"
       style="fill-rule:evenodd;stroke:#000000;stroke-width:1.0pt"
       d="M 0.0,0.0 L 5.0,-5.0 L -12.5,0.0 L 5.0,5.0 L 0.0,0.0 z "
       id="path856" /></marker></defs><sodipodi:namedview
   pagecolor="#ffffff"
   bordercolor="#666666"
   borderopacity="1"
   objecttolerance="10"
   gridtolerance="10"
   guidetolerance="10"
   inkscape:pageopacity="0"
   inkscape:pageshadow="2"
   inkscape:window-width="1368"
   inkscape:window-height="850"
   id="namedview15"
   showgrid="true"
   inkscape:zoom="4.064926"
   inkscape:cx="70.17472"
   inkscape:cy="76.133228"
   inkscape:window-x="-6"
   inkscape:window-y="-6"
   inkscape:window-maximized="1"
   inkscape:current-layer="layer1"
   inkscape:snap-grids="true"
   inkscape:document-rotation="0"><inkscape:grid
     type="xygrid"
     id="grid1409" /></sodipodi:namedview>

<g
   inkscape:groupmode="layer"
   id="layer1"
   inkscape:label="Layer 1"
   style="display:inline;opacity:1;"><path
     id="rect1518"
     style="opacity:0.994175;fill:#13af17;stroke-width:6;stroke-linecap:round;stroke-linejoin:round;fill-opacity:1"
     d="M 30 55 C 27.23 55 25 57.23 25 60 L 25 130 C 25 132.77 27.23 135 30 135 L 60.5 135 C 58.838 135 57.5 133.662 57.5 132 L 57.5 93 C 57.5 91.338 58.838 90 60.5 90 L 79.5 90 C 81.162 90 82.5 91.338 82.5 93 L 82.5 132 C 82.5 133.662 81.162 135 79.5 135 L 110 135 C 112.77 135 115 132.77 115 130 L 115 60 C 115 57.23 112.77 55 110 55 L 30 55 z " /><path
     style="fill:#13af17;stroke:none;stroke-width:1px;stroke-linecap:butt;stroke-linejoin:miter;stroke-opacity:1;fill-opacity:1"
     d="M 5,75 H 135 L 70,15 Z"
     id="path1522"
     sodipodi:nodetypes="cccc" /><rect
     style="opacity:0.994175;fill:#13af17;fill-opacity:1;stroke:none;stroke-width:6;stroke-linecap:round;stroke-linejoin:round;fill-rule:nonzero"
     id="rect1524"
     width="20"
     height="35"
     x="90"
     y="20"
     ry="3" /></g><g
   inkscape:groupmode="layer"
   id="layer2"
   inkscape:label="Layer 2" /></svg>

<?xml version="1.0" encoding="utf-8"?>
<!-- Generator: Adobe Illustrator 25.2.3, SVG Export Plug-In . SVG Version: 6.00 Build 0)  -->
<svg version="1.1"
	 id="Capa_1" xmlns:cc="http://creativecommons.org/ns#" xmlns:dc="http://purl.org/dc/elements/1.1/" xmlns:inkscape="http://www.inkscape.org/namespaces/inkscape" xmlns:rdf="http://www.w3.org/1999/02/22-rdf-syntax-ns#" xmlns:sodipodi="http://sodipodi.sourceforge.net/DTD/sodipodi-0.dtd" xmlns:svg="http://www.w3.org/2000/svg"
	 xmlns="http://www.w3.org/2000/svg" xmlns:xlink="http://www.w3.org/1999/xlink" x="0px" y="0px" viewBox="0 0 141.7 141.7"
	 style="enable-background:new 0 0 141.7 141.7;" xml:space="preserve">
<style type="text/css">
	.st0{opacity:0.9942;fill:#4CB944;enable-background:new    ;}
	.st1{fill:#4CB944;}
</style>
<sodipodi:namedview  bordercolor="#666666" borderopacity="1" gridtolerance="10" guidetolerance="10" id="namedview15" inkscape:current-layer="layer1" inkscape:cx="70.17472" inkscape:cy="76.133228" inkscape:document-rotation="0" inkscape:pageopacity="0" inkscape:pageshadow="2" inkscape:snap-grids="true" inkscape:window-height="850" inkscape:window-maximized="1" inkscape:window-width="1368" inkscape:window-x="-6" inkscape:window-y="-6" inkscape:zoom="4.064926" objecttolerance="10" pagecolor="#ffffff" showgrid="true">
	<inkscape:grid  id="grid1409" type="xygrid"></inkscape:grid>
</sodipodi:namedview>
<g id="layer1" inkscape:groupmode="layer" inkscape:label="Layer 1">
	<g>
		<path id="rect1518_8_" class="st0" d="M30,55c-2.8,0-5,2.2-5,5v70c0,2.8,2.2,5,5,5h30.5c-1.7,0-3-1.3-3-3V93c0-1.7,1.3-3,3-3h19
			c1.7,0,3,1.3,3,3v39c0,1.7-1.3,3-3,3H110c2.8,0,5-2.2,5-5V60c0-2.8-2.2-5-5-5H30z"/>
		<path id="path1522_8_" sodipodi:nodetypes="cccc" class="st1" d="M5,75h130L70,15L5,75z"/>
		<path id="rect1524_8_" class="st0" d="M93,20h14c1.7,0,3,1.3,3,3v29c0,1.7-1.3,3-3,3H93c-1.7,0-3-1.3-3-3V23
			C90,21.3,91.3,20,93,20z"/>
	</g>
</g>
<g id="layer2" inkscape:groupmode="layer" inkscape:label="Layer 2">
</g>
</svg>
